openmetadata-ui/src/main/resources/ui/src/assets/img/service-icon-atlas.svg

<svg width="153" height="178" viewBox="0 0 153 178" fill="none" xmlns="http://www.w3.org/2000/svg">
<g clip-path="url(#clip0_16273_25354)">
<path d="M76.38 0L0 48.2V128.86L76.38 177.06L152.76 128.86V48.2L76.38 0ZM132.63 118.23L76.38 153.73L20.13 118.23V58.83L76.38 23.33L132.63 58.83V118.23Z" fill="#1FCFB8"/>
<path d="M62.7595 126.791C65.3774 126.791 67.4995 124.668 67.4995 122.051C67.4995 119.433 65.3774 117.311 62.7595 117.311C60.1417 117.311 58.0195 119.433 58.0195 122.051C58.0195 124.668 60.1417 126.791 62.7595 126.791Z" stroke="#CDCCCC" stroke-width="3.55" stroke-miterlimit="10"/>
<path d="M107.76 85.9295C110.703 85.9295 113.09 83.5432 113.09 80.5995C113.09 77.6559 110.703 75.2695 107.76 75.2695C104.816 75.2695 102.43 77.6559 102.43 80.5995C102.43 83.5432 104.816 85.9295 107.76 85.9295Z" stroke="#CDCCCC" stroke-width="3.55" stroke-miterlimit="10"/>
<path d="M59.2109 90.2891C63.9054 90.2891 67.7109 86.4835 67.7109 81.7891C67.7109 77.0946 63.9054 73.2891 59.2109 73.2891C54.5165 73.2891 50.7109 77.0946 50.7109 81.7891C50.7109 86.4835 54.5165 90.2891 59.2109 90.2891Z" stroke="#CDCCCC" stroke-width="5" stroke-miterlimit="10"/>
<path d="M59 90.1895L61.96 117.389" stroke="#CDCCCC" stroke-width="3.55" stroke-miterlimit="10"/>
<path d="M102.43 81.7891L68 82.1891" stroke="#CDCCCC" stroke-width="3.55" stroke-miterlimit="10"/>
<path d="M84.24 98.371H81L79.78 97.151C83.9813 92.4674 86.2972 86.3927 86.28 80.1009C86.28 74.8815 84.7323 69.7793 81.8325 65.4394C78.9327 61.0996 74.8112 57.7172 69.989 55.7198C65.1669 53.7224 59.8607 53.1998 54.7416 54.218C49.6224 55.2363 44.9202 57.7497 41.2295 61.4404C37.5388 65.1311 35.0254 69.8334 34.0071 74.9525C32.9888 80.0717 33.5114 85.3778 35.5088 90.2C37.5062 95.0221 40.8887 99.1437 45.2285 102.043C49.5683 104.943 54.6706 106.491 59.89 106.491C66.177 106.508 72.2475 104.196 76.93 100.001L78.15 101.221V104.471L98.45 124.771L104.54 118.681L84.24 98.371ZM59.88 98.371C56.2665 98.371 52.7342 97.2994 49.7297 95.2919C46.7253 93.2844 44.3835 90.431 43.0007 87.0926C41.6179 83.7542 41.2561 80.0807 41.9611 76.5366C42.666 72.9926 44.4061 69.7372 46.9612 67.1821C49.5163 64.627 52.7717 62.887 56.3157 62.182C59.8597 61.4771 63.5332 61.8389 66.8716 63.2217C70.21 64.6045 73.0634 66.9462 75.071 69.9507C77.0785 72.9552 78.15 76.4875 78.15 80.1009C78.1606 82.5032 77.6953 84.8837 76.7809 87.1051C75.8665 89.3265 74.5211 91.3448 72.8225 93.0434C71.1238 94.742 69.1055 96.0874 66.8841 97.0018C64.6627 97.9162 62.2822 98.3815 59.88 98.371V98.371Z" fill="#1FCFB8"/>
<path d="M152.759 48.0996L132.629 58.7296V118.24L75.7891 154.11V177.38L152.759 128.81V48.0996Z" fill="#009883"/>
</g>
<defs>
<clipPath id="clip0_16273_25354">
<rect width="152.76" height="177.38" fill="white"/>
</clipPath>
</defs>
</svg>

<svg xmlns="http://www.w3.org/2000/svg" width="153" height="178" fill="none"><g clip-path="url(#a)"><path fill="#1FCFB8" d="M76.38 0 0 48.2v80.66l76.38 48.2 76.38-48.2V48.2L76.38 0Zm56.25 118.23-56.25 35.5-56.25-35.5v-59.4l56.25-35.5 56.25 35.5v59.4Z"/><path stroke="#CDCCCC" stroke-miterlimit="10" stroke-width="3.55" d="M62.76 126.791a4.74 4.74 0 1 0-.001-9.481 4.74 4.74 0 0 0 0 9.481ZM107.76 85.93a5.33 5.33 0 1 0 0-10.661 5.33 5.33 0 0 0 0 10.66Z"/><path stroke="#CDCCCC" stroke-miterlimit="10" stroke-width="5" d="M59.21 90.29a8.5 8.5 0 1 0 .001-17 8.5 8.5 0 0 0 0 17Z"/><path stroke="#CDCCCC" stroke-miterlimit="10" stroke-width="3.55" d="m59 90.19 2.96 27.199M102.43 81.79l-34.43.4"/><path fill="#1FCFB8" d="M84.24 98.371H81l-1.22-1.22a25.43 25.43 0 0 0 6.5-17.05 26.39 26.39 0 1 0-26.39 26.39 25.434 25.434 0 0 0 17.04-6.49l1.22 1.22v3.25l20.3 20.3 6.09-6.09-20.3-20.31Zm-24.36 0a18.27 18.27 0 1 1 18.27-18.27 18.19 18.19 0 0 1-18.27 18.27Z"/><path fill="#009883" d="m152.759 48.1-20.13 10.63v59.51l-56.84 35.87v23.27l76.97-48.57V48.1Z"/></g><defs><clipPath id="a"><path fill="#fff" d="M0 0h152.76v177.38H0z"/></clipPath></defs></svg>
